svgs/sharp-regular/file-music.svg

<svg xmlns="http://www.w3.org/2000/svg" viewBox="0 0 384 512"><!--! Font Awesome Pro 6.6.0 by @fontawesome - https://fontawesome.com License - https://fontawesome.com/license (Commercial License) Copyright 2024 Fonticons, Inc. --><path d="M48 464L48 48l176 0 0 112 112 0 0 304L48 464zM256 0L48 0 0 0 0 48 0 464l0 48 48 0 288 0 48 0 0-48 0-336L256 0zm48 208l0-23.1L282.4 193l-128 48L144 244.9l0 11.1 0 32 0 81.8c-5-1.2-10.4-1.8-16-1.8c-26.5 0-48 14.3-48 32s21.5 32 48 32s48-14.3 48-32l0-100.9 96-36 0 74.7c-5-1.2-10.4-1.8-16-1.8c-26.5 0-48 14.3-48 32s21.5 32 48 32s48-14.3 48-32l0-128 0-32z"/></svg>

<svg xmlns="http://www.w3.org/2000/svg" viewBox="0 0 384 512"><!--! Font Awesome Pro 6.4.0 by @fontawesome - https://fontawesome.com License - https://fontawesome.com/license (Commercial License) Copyright 2023 Fonticons, Inc. --><path d="M48 464V48H224V160H336V464H48zM256 0H48 0V48 464v48H48 336h48V464 128L256 0zm48 208V184.9L282.4 193l-128 48L144 244.9V256v32 81.8c-5-1.2-10.4-1.8-16-1.8c-26.5 0-48 14.3-48 32s21.5 32 48 32s48-14.3 48-32V299.1l96-36v74.7c-5-1.2-10.4-1.8-16-1.8c-26.5 0-48 14.3-48 32s21.5 32 48 32s48-14.3 48-32V240 208z"/></svg>
